actions/24/fcitx-sayura.svg

<?xml version="1.0" encoding="UTF-8" standalone="no"?>
<svg
   width="24"
   height="24"
   version="1.1"
   id="svg9"
   sodipodi:docname="fcitx-sayura.svg"
   inkscape:version="1.1.2 (0a00cf5339, 2022-02-04)"
   xmlns:inkscape="http://www.inkscape.org/namespaces/inkscape"
   xmlns:sodipodi="http://sodipodi.sourceforge.net/DTD/sodipodi-0.dtd"
   xmlns="http://www.w3.org/2000/svg"
   xmlns:svg="http://www.w3.org/2000/svg">
  <sodipodi:namedview
     id="namedview11"
     pagecolor="#000000"
     bordercolor="#666666"
     borderopacity="1.0"
     inkscape:pageshadow="2"
     inkscape:pageopacity="0"
     inkscape:pagecheckerboard="0"
     showgrid="false"
     inkscape:zoom="56.833333"
     inkscape:cx="11.991202"
     inkscape:cy="11.982405"
     inkscape:window-width="1596"
     inkscape:window-height="967"
     inkscape:window-x="0"
     inkscape:window-y="29"
     inkscape:window-maximized="1"
     inkscape:current-layer="g7" />
  <defs
     id="defs3">
    <style
       id="current-color-scheme"
       type="text/css">
   .ColorScheme-Text { color:#eeeeec; } .ColorScheme-Highlight { color:#367bf0; } .ColorScheme-NeutralText { color:#ffcc44; } .ColorScheme-PositiveText { color:#3db47e; } .ColorScheme-NegativeText { color:#dd4747; }
  </style>
  </defs>
  <g
     transform="matrix(1,0,0,1,4,4)"
     id="g7">
    <path
       class="ColorScheme-Text"
       d="M 2,0 C 0.892,0 0,0.892 0,2 v 12 c 0,1.108 0.892,2 2,2 h 12 c 1.108,0 2,-0.892 2,-2 V 2 C 16,0.892 15.108,0 14,0 Z m 8.799,2.0566 0.873,0.6973 c -0.032,0.0529 -0.059,0.1003 -0.08,0.1426 -0.011,0.0423 -0.016,0.1068 -0.016,0.1914 0,0.1163 0.038,0.2465 0.112,0.3945 0.512,0.3928 0.816,0.8609 1.144,1.3653 0.087,0.1862 0.186,0.3698 0.201,0.5664 0.035,0.4532 -0.147,0.836 -0.443,1.1425 -0.296,0.3066 -1.121,0.459 -1.871,0.459 -0.201,0 -0.497,-0.0272 -0.719,-0.0801 v 3.478605 l 0.351389,0.125812 c 0.102548,-0.02861 -0.122697,0.0375 0,0 0.104635,-0.03198 0.206762,-0.06725 0.289611,-0.105917 0.19,-0.085 0.385,-0.18 0.586,-0.286 l 0.412,1.063 c -0.254,0.116 -0.511,0.221 -0.776,0.316 C 10.61,11.612 10.264,11.687 10,11.75 V 15 H 9 v -3.061 c -0.3065,0.043 -1.8267,0.112 -2.1016,0.112 -0.983,0 -1.839,-0.143 -2.5683,-0.428 C 3.6007,11.327 3.0294,10.893 2.6172,10.322 2.2155,9.7524 2,8.9382 2,8.082 2.0285,7.4858 2.2458,7.0335 2.543,6.6523 3.1455,5.8881 3.862,5.5204 4.6797,5.2148 5.0285,5.1197 5.4353,5.0942 5.9004,5.0625 6.3761,5.0203 6.9473,5 7.6133,5 H 9 C 8.9683,4.5032 8.7854,3.6993 8.5,3.4668 8.2252,3.2342 7.8709,3.1191 7.4375,3.1191 7.0252,3.1191 6.7134,3.1989 6.502,3.3574 6.2905,3.5054 6.1855,3.7103 6.1855,3.9746 c 0,0 0.0157,0.2066 0.0157,0.2383 L 5.0742,4.3555 C 5.0531,4.2603 5.043,3.8633 5.043,3.8633 5.043,3.2819 5.2499,2.8378 5.6621,2.5312 6.0744,2.2247 6.6386,2.0723 7.3574,2.0723 c 0.9967511,0 1.7153437,0.365042 2.1559269,1.0949023 0.045373,0.075163 0.1999626,-0.027011 0.2394386,0.05589 0.035792,-0.060987 -0.038983,0.059818 0,0 C 10.024625,2.8059347 10.37395,2.4171931 10.799,2.0566 Z m 0.01759,1.727796 c -0.0467,0.056092 -0.206679,0.00142 -0.251811,0.057191 C 10.354772,4.101078 10.17191,4.3570344 10.111,4.6094 10.037,4.9159 10,4.8496 10,5.209 v 0.6972 c 0.17,0.034 0.44,0.0626 0.656,0.0626 0.349,0 0.892,-0.0576 1.03,-0.1739 C 11.818,5.6104 11.855,5.4584 11.844,5.3184 11.794,5.0427 11.682,4.8182 11.539,4.6055 11.350325,4.2689138 11.066519,4.0222897 10.816594,3.784396 c -0.03885,-0.036975 0.03672,0.036858 0,0 z M 7.7246,6 C 6.9847,5.9998 6.3912,6.0202 5.9473,6.0625 5.5139,6.1048 5.1596,6.1744 4.8848,6.2695 4.6205,6.3541 4.3833,6.4668 4.1719,6.5938 3.5845,7.0653 3.3244,7.4802 3.2695,7.9316 3.2476,8.2351 3.1858,8.4943 3.2305,8.7188 3.432,9.7322 4.0092,10.078 4.7754,10.545 c 0.5602,0.254 1.3092,0.379 2.25,0.379 0.2854,0 1.7103,-0.047 1.9746,-0.078 V 6 Z"
       style="fill:currentColor"
       id="path5"
       sodipodi:nodetypes="ssssssssscccsccccscccsccccccccsccccccsccsccccccsscsccscscscccsccccccccsccc" />
  </g>
</svg>

<svg xmlns="http://www.w3.org/2000/svg" width="24" height="24" version="1.1">
 <defs>
  <style id="current-color-scheme" type="text/css">
   .ColorScheme-Text { color:#eeeeec; } .ColorScheme-Highlight { color:#367bf0; } .ColorScheme-NeutralText { color:#ffcc44; } .ColorScheme-PositiveText { color:#3db47e; } .ColorScheme-NegativeText { color:#dd4747; }
  </style>
 </defs>
 <g transform="matrix(1,0,0,1,4,4)">
  <path class="ColorScheme-Text" d="M 2,0 C 0.892,0 0,0.892 0,2 V 14 C 0,15.108 0.892,16 2,16 H 14 C 15.108,16 16,15.108 16,14 V 2 C 16,0.892 15.108,0 14,0 Z M 10.799,2.0566 11.672,2.7539 C 11.64,2.8068 11.613,2.8542 11.592,2.8965 11.581,2.9388 11.576,3.0033 11.576,3.0879 11.576,3.2042 11.614,3.3344 11.688,3.4824 12.2,3.8752 12.504,4.3433 12.832,4.8477 12.919,5.0339 13.018,5.2175 13.033,5.4141 13.068,5.8673 12.886,6.2501 12.59,6.5566 12.294,6.8632 11.469,7.0156 10.719,7.0156 10.518,7.0156 10.222,6.9884 10,6.9355 V 10.639 C 10.19,10.586 10.461,10.518 10.641,10.434 10.831,10.349 11.026,10.254 11.227,10.148 L 11.639,11.211 C 11.385,11.327 11.128,11.432 10.863,11.527 10.61,11.612 10.264,11.687 10,11.75 V 15 H 9 V 11.939 C 8.6935,11.982 7.1733,12.051 6.8984,12.051 5.9154,12.051 5.0594,11.908 4.3301,11.623 3.6007,11.327 3.0294,10.893 2.6172,10.322 2.2155,9.7524 2,8.9382 2,8.082 2.0285,7.4858 2.2458,7.0335 2.543,6.6523 3.1455,5.8881 3.862,5.5204 4.6797,5.2148 5.0285,5.1197 5.4353,5.0942 5.9004,5.0625 6.3761,5.0203 6.9473,5 7.6133,5 H 9 C 8.9683,4.5032 8.7854,3.6993 8.5,3.4668 8.2252,3.2342 7.8709,3.1191 7.4375,3.1191 7.0252,3.1191 6.7134,3.1989 6.502,3.3574 6.2905,3.5054 6.1855,3.7103 6.1855,3.9746 6.1855,3.9746 6.2012,4.1812 6.2012,4.2129 L 5.0742,4.3555 C 5.0531,4.2603 5.043,3.8633 5.043,3.8633 5.043,3.2819 5.2499,2.8378 5.6621,2.5312 6.0744,2.2247 6.6386,2.0723 7.3574,2.0723 8.4568,2.0723 9.2178,2.5164 9.6406,3.4043 9.926,2.918 10.313,2.4689 10.799,2.0566 Z M 10.703,3.6738 C 10.439,3.9909 10.185,4.3028 10.111,4.6094 10.037,4.9159 10,4.8496 10,5.209 V 5.9062 C 10.17,5.9402 10.44,5.9688 10.656,5.9688 11.005,5.9688 11.548,5.9112 11.686,5.7949 11.818,5.6104 11.855,5.4584 11.844,5.3184 11.794,5.0427 11.682,4.8182 11.539,4.6055 11.321,4.2166 10.976,3.9478 10.703,3.6738 Z M 7.7246,6 C 6.9847,5.9998 6.3912,6.0202 5.9473,6.0625 5.5139,6.1048 5.1596,6.1744 4.8848,6.2695 4.6205,6.3541 4.3833,6.4668 4.1719,6.5938 3.5845,7.0653 3.3244,7.4802 3.2695,7.9316 3.2476,8.2351 3.1858,8.4943 3.2305,8.7188 3.432,9.7322 4.0092,10.078 4.7754,10.545 5.3356,10.799 6.0846,10.924 7.0254,10.924 7.3108,10.924 8.7357,10.877 9,10.846 V 6 Z" style="fill:currentColor"/>
 </g>
</svg>
